_includes/icons/ios-linux.svg

<svg fill="#666" height="50" viewBox="0 0 50 50" width="50" xmlns="http://www.w3.org/2000/svg"><path d="m24 2c-2.839844 0-4.800781 1.445313-5.796875 3.398438-.992187 1.953125-1.203125 4.335937-1.203125 6.601562v5c0 .320313-.105469.824219-.257812 1.125l-.007813.023438-.011719.023437c.023438-.050781-.425781.625-.988281 1.421875-.5625.800781-1.277344 1.859375-1.976562 3.144531-1.367188 2.511719-2.683594 5.90625-2.746094 9.960938-.15625.136719-.292969.273437-.421875.398437-.582031.582032-.992188 1.195313-1.640625 1.652344l-.121094.089844-.09375.117187c.015625-.019531.011719.011719-.179687.054688-.191407.039062-.515625.066406-.890625.101562-.378907.035157-.824219.082032-1.296875.28125-.46875.203125-.964844.621094-1.21875 1.203125-.203125.460938-.160157.941407-.0625 1.289063.09375.347656.226562.628906.351562.90625.242188.554687.453125 1.070312.453125 1.710937 0 .070313-.03125.167969-.15625.375-.128906.207032-.375.464844-.507812 1l-.015625.046875c-.050782.261719-.121094.519532-.144532.867188-.023437.347656.042969.785156.234375 1.164062l.027344.058594.035156.046875c.308594.464844.878907.929688 1.683594 1.214844.804688.28125 1.949219.535156 3.917969.941406.9375.207031 1.902344.585938 2.816406.949219.917969.363281 1.75.71875 2.640625.800781.71875.066406 1.789063.105469 2.800781-.472656.785157-.445313 1.398438-1.304688 1.644532-2.496094h9.210937c.144531.929688.492188 1.664063 1.109375 2.15625.59375.554688 1.503906.84375 2.886719.84375 1.539062 0 2.730469-.664062 3.660156-1.59375.488281-.488281.9375-.71875 2.5625-1.878906.613281-.390625 1.425781-.855469 2.140625-1.273438.355469-.207031.6875-.402343.964844-.578125.277344-.175781.46875-.277343.710937-.519531l.003907-.003906h.003906c-.003906 0 .203125-.125.453125-.4375s.425781-.8125.425781-1.332031c0-.5625-.28125-1.09375-.609375-1.390625-.28125-.257813-.558594-.378907-.789062-.460938-.519532-.253906-1.03125-.472656-1.585938-1.285156.050781.066406-.097656-.457031-.1875-1.046875-.09375-.601563-.171875-1.316406-.714844-1.984375-.082031-.105469-.179687-.199219-.285156-.277344.09375-.914062.171875-1.90625.171875-2.9375 0-3.160156-1.8125-6.285156-3.792969-9.128906-1.972656-2.839844-3.410156-4.351563-4.210937-7.664063h.003906c-.421875-1.730468-.480469-2.242187-.539062-2.773437-.058594-.535156-.121094-1.125-.488282-2.660156-.34375-1.621094-.722656-3.304688-1.90625-4.640625-1.191406-1.34375-3.132812-2.132813-6.066406-2.132813zm0 2c2.597656 0 3.816406.605469 4.570313 1.457031.753906.851563 1.113281 2.164063 1.449218 3.753907l.007813.007812v.015625c.355469 1.484375.386719 1.859375.445312 2.414063.058594.554687.148438 1.246093.578125 3.027343.898438 3.71875 2.613282 5.601563 4.515625 8.335938 1.898438 2.730469 3.433594 5.636719 3.433594 7.988281 0 .933594-.070312 1.867188-.15625 2.726563-.0625.019531-.125.039062-.179687.058593-.304688-.222656-.664063-.378906-1.054688-.488281-.519531-.1875-1.03125-.328125-1.625-.34375-.371094-.039062-.71875-.027344-1.042969.015625-.542968-9.902344-5.003906-12.820312-6.425781-15.757812.003906-.007813.011719-.011719.015625-.023438.335938-.515625.390625-1.050781.449219-1.660156.007812-.0625.003906-.125.003906-.183594.632813-.878906 1.015625-2.042969 1.015625-3.34375 0-2.804687-1.757812-5-4-5-1.273437 0-2.058594.445313-2.503906 1.488281-.453125-1.03125-1.230469-1.488281-2.496094-1.488281-.503906 0-.976562.125-1.417969.328125.117188-.367187.246094-.710937.402344-1.023437.738281-1.445313 1.777344-2.304688 4.015625-2.304688zm-3 5c1.105469 0 2 1.34375 2 3v.015625c-.082031-.003906-.160156-.015625-.246094-.015625-.285156 0-.550781.042969-.804687.109375-.121094-.636719-.488281-1.109375-.949219-1.109375-.550781 0-1 .671875-1 1.5 0 .203125.027344.394531.078125.570313-.269531.203125-.476562.375-.597656.496093-.042969.039063-.082031.070313-.121094.105469-.222656-.480469-.359375-1.046875-.359375-1.671875 0-1.65625.894531-3 2-3zm5 0c1.105469 0 2 1.34375 2 3 0 .570313-.117187 1.089844-.300781 1.542969-.292969-.125-.574219-.21875-.855469-.289063.089844-.222656.15625-.472656.15625-.753906 0-.828125-.449219-1.5-1-1.5s-1 .671875-1 1.5v.011719c-.304687-.125-.636719-.242188-.988281-.335938-.003906-.058593-.011719-.117187-.011719-.175781 0-1.65625.894531-3 2-3zm-3.246094 5c.40625 0 .996094.160156 1.535157.378906.539062.21875.996093.460938 1.378906.621094l.078125.035156.082031.015625c.507813.121094.964844.25 1.152344.347657-.050781.429687-.101563.664062-.125.699218-.027344.042969-.167969.175782-.679688.449219-.632812.226563-1.113281.59375-1.628906.90625-.566406.339844-1.140625.546875-1.222656.546875-.4375 0-1.042969-.03125-1.285156-.082031.09375.027344-.070313-.054688-.277344-.246094-.222656-.210937-.5-.5-.78125-.800781l-.074219-.074219-.078125-.054687c-.320312-.226563-.570312-.429688-.691406-.574219-.125-.148438-.136719-.191406-.136719-.289063 0-.148437-.027344-.058593.0625-.160156.089844-.105469.363281-.320312.734375-.648437l.035156-.027344.03125-.035156c-.054687.058593.308594-.296875.703125-.554688.394532-.257812.882813-.453125 1.1875-.453125zm-3.828125 3.769531c.027344.027344.054688.058594.085938.082032-.007813.050781-.011719.097656-.011719.148437v.941406c-.007812.097657-.25.789063-.703125 1.601563-.457031.816406-1.082031 1.816406-1.710937 2.925781-1.257813 2.210938-2.585938 4.832031-2.585938 7.53125 0 .597656.132813 1.160156.328125 1.6875-.039062-.035156-.078125-.078125-.121094-.109375-.316406-.253906-.675781-.488281-1.167968-.550781.1875-3.328125 1.292968-6.160156 2.476562-8.332031.648438-1.191407 1.3125-2.179688 1.855469-2.945313.53125-.757812.898437-1.164062 1.160156-1.746094.203125-.402343.324219-.820312.394531-1.234375zm7.945313.652344c1.84375 3.628906 5.667969 5.691406 6.082031 14.90625-.320312.042969-.640625.128906-.90625.324219-.359375.261719-.558594.59375-.703125.890625-.164062.328125-.273437.707031-.3125 1.085937-.035156.382813-.03125.78125-.03125 1.371094 0 .945313-.007812 1.988281-.109375 2.695313v.023437c-.003906.003906-.003906.007813-.003906.015625-.214844.429688-1.75 3.265625-5.886719 3.265625-2.40625 0-3.886719-.941406-4.753906-1.816406-.109375-.160156-.21875-.308594-.328125-.460938.582031-.191406 1.230469-.457031 1.714844-1.148437l.023437-.027344.015625-.03125c.308594-.511719.371094-1.097656.296875-1.558594-.078125-.460937-.265625-.820312-.441406-1.085937-.167969-.25-.285156-.316406-.410156-.414063-.125-.09375-.253907-.175781-.398438-.265625-.285156-.179687-.621094-.367187-.96875-.566406-.691406-.398437-1.460937-.863281-1.734375-1.097656-.332031-.28125-.882812-.878906-1.308594-1.546875-.421875-.671875-.707031-1.417969-.707031-1.980469 0-2.007812 1.113281-4.417969 2.324219-6.542969.605469-1.0625 1.222656-2.054687 1.71875-2.9375.390625-.699218.722656-1.292968.871094-1.941406.132812.089844.285156.175781.488281.246094l.035156.011719.039063.011718c.695312.183594 1.394531.152344 1.847656.152344.941406 0 1.621094-.453125 2.253906-.832031.609375-.367188 1.179688-.699219 1.292969-.746094zm-14.070313 15.578125c-.160156 0-.03125-.011719.164063.144531.195312.15625.460937.425782.722656.738282.523438.628906 1.0625 1.4375 1.390625 1.980468l.015625.03125.019531.027344c.785157 1.117188.886719 1.4375 2.058594 3.308594l-.019531-.042969c.066406.121094.128906.21875.195312.328125.003907.007813.007813.015625.011719.027344 0 0 .003906 0 .003906.003906.03125.070313.074219.136719.121094.199219.097656.183594.324219.597656.878906 1.246094.078125.105468.179688.238281.242188.332031.308594.476562.433594.734375.386719 1.46875l-.003907.03125v.03125c0 1.324219-.347656 1.671875-.753906 1.902344-.40625.230468-1.078125.269531-1.632812.21875-.386719-.035157-1.171875-.308594-2.085938-.667969-.910156-.363281-1.972656-.789063-3.121094-1.042969h-.007812l-.007813-.003906c-1.960937-.402344-3.082031-.667969-3.664062-.871094-.542969-.195312-.519531-.222656-.644531-.40625 0-.011719-.011719-.023437-.007813-.058594.003906-.078125.046875-.285156.101563-.558593v-.003907c-.015625.074219.082031-.128906.273437-.441406.191406-.308594.453125-.789062.453125-1.417969 0-1.089843-.375-1.941406-.625-2.519531-.128906-.285156-.222656-.507812-.25-.617187.027344-.058594.039063-.089844.140625-.132813.121094-.050781.371094-.101562.695313-.128906.324218-.03125.707031-.046875 1.136718-.140625.425782-.097656.949219-.308594 1.324219-.785156.792969-.636719 1.378906-1.351563 1.6875-1.664063.234375-.230469.390625-.375.488281-.4375.101563-.058594.132813-.078125.3125-.078125zm22.371094.917969c.164063-.019531.367188-.015625.625.015625l.058594.007812h.0625c-.085938 0 .761719.140625 1.042969.246094l.039062.011719.042969.011719c.238281.066406.269531.113281.320312.148437-.039062.082031-.101562.167969-.160156.253906-.117187.113282-.316406.269532-.421875.632813-.289062.324219-.835937.664062-1.140625.664062-.1875 0-.382812-.035156-.488281-.078125-.03125-.011718-.023438-.023437-.042969-.03125v-.113281s.011719-.015625.042969-.230469c.023437-.144531-.039063-.414062-.089844-.65625-.019531-.296875-.191406-.515625-.304687-.78125.019531-.007812.054687-.011718.078125-.019531h.164062c0-.015625 0-.027344 0-.042969.058594-.011718.101563-.035156.171875-.039062zm2.246094.09375c0 .125.046875.0625.066406.160156-.007812.007813-.015625.023438-.023437.035156zm2.203125.617187c.054687.136719.160156.425782.230469.871094.082031.546875.039062 1.105469.457031 1.796875l.007812.019531.015625.019532c.851563 1.277343 1.980469 1.789062 2.394532 1.996093l.0625.03125.070312.023438c.089844.027344.128906.054687.152344.066406 0-.003906 0 .015625 0 .015625.011719-.019531-.074219.035156-.3125.273438.0625-.0625-.125.089843-.359375.242187-.242188.148438-.558594.335938-.914063.542969-.703125.410156-1.535156.886719-2.21875 1.320312l-.019531.011719-.023437.015625c-1.632813 1.167969-2.160157 1.433594-2.84375 2.117188-.726563.726562-1.191407 1.007812-2.246094 1.007812-1.179688 0-1.421875-.179687-1.542969-.296875l-.046875-.050781-.058594-.042969c-.066406-.050781-.425781-.5625-.425781-1.683594 0-.8125.613281-1.792968.871094-3.957031.132812-.945312.128906-2.027344.128906-2.96875 0-.589844.003906-.960937.023438-1.171875.003906-.050781.011718-.070312.015625-.105469.03125.042969.070312.078125.070312.203125v.214844l.050781.113281c-.015625.070313-.050781.1875-.050781.433594v.675781l.09375.199219c.253906.5625.738281.933594 1.1875 1.121094.449219.183594.878906.226562 1.25.226562 1.320313 0 2.316406-.792968 2.90625-1.660156l.175781-.253906v-.058594c.011719-.019531-.003906-.011719.015625-.035156l.066407-.070313.050781-.082031c.304687-.5.523437-.855469.441406-.765625zm-22.484375.746094c.5.355469 1.082031.675781 1.621094.984375.347656.199219.671875.386719.902343.53125.101563.0625.175782.113281.226563.148438.046875.085937.097656.179687.109375.246093.007812.066407-.003906.101563-.03125.15625-.027344.019532-.46875.320313-.9375.472657-.101563.03125-.175781.046875-.269531.070312-.792969-1.269531-1.152344-1.894531-1.621094-2.609375z"/></svg>

<svg xmlns="http://www.w3.org/2000/svg" viewBox="0 0 50 50" width="50" height="50" fill="#666"><path d="M 24 2 C 21.160156 2 19.199219 3.445313 18.203125 5.398438 C 17.210938 7.351563 17 9.734375 17 12 L 17 17 C 17 17.320313 16.894531 17.824219 16.742188 18.125 L 16.734375 18.148438 L 16.722656 18.171875 C 16.746094 18.121094 16.296875 18.796875 15.734375 19.59375 C 15.171875 20.394531 14.457031 21.453125 13.757813 22.738281 C 12.390625 25.25 11.074219 28.644531 11.011719 32.699219 C 10.855469 32.835938 10.71875 32.972656 10.589844 33.097656 C 10.007813 33.679688 9.597656 34.292969 8.949219 34.75 L 8.828125 34.839844 L 8.734375 34.957031 C 8.75 34.9375 8.746094 34.96875 8.554688 35.011719 C 8.363281 35.050781 8.039063 35.078125 7.664063 35.113281 C 7.285156 35.148438 6.839844 35.195313 6.367188 35.394531 C 5.898438 35.597656 5.402344 36.015625 5.148438 36.597656 C 4.945313 37.058594 4.988281 37.539063 5.085938 37.886719 C 5.179688 38.234375 5.3125 38.515625 5.4375 38.792969 C 5.679688 39.347656 5.890625 39.863281 5.890625 40.503906 C 5.890625 40.574219 5.859375 40.671875 5.734375 40.878906 C 5.605469 41.085938 5.359375 41.34375 5.226563 41.878906 L 5.210938 41.925781 C 5.160156 42.1875 5.089844 42.445313 5.066406 42.792969 C 5.042969 43.140625 5.109375 43.578125 5.300781 43.957031 L 5.328125 44.015625 L 5.363281 44.0625 C 5.671875 44.527344 6.242188 44.992188 7.046875 45.277344 C 7.851563 45.558594 8.996094 45.8125 10.964844 46.21875 C 11.902344 46.425781 12.867188 46.804688 13.78125 47.167969 C 14.699219 47.53125 15.53125 47.886719 16.421875 47.96875 C 17.140625 48.035156 18.210938 48.074219 19.222656 47.496094 C 20.007813 47.050781 20.621094 46.191406 20.867188 45 L 30.078125 45 C 30.222656 45.929688 30.570313 46.664063 31.1875 47.15625 C 31.78125 47.710938 32.691406 48 34.074219 48 C 35.613281 48 36.804688 47.335938 37.734375 46.40625 C 38.222656 45.917969 38.671875 45.6875 40.296875 44.527344 C 40.910156 44.136719 41.722656 43.671875 42.4375 43.253906 C 42.792969 43.046875 43.125 42.851563 43.402344 42.675781 C 43.679688 42.5 43.871094 42.398438 44.113281 42.15625 L 44.117188 42.152344 L 44.121094 42.152344 C 44.117188 42.152344 44.324219 42.027344 44.574219 41.714844 C 44.824219 41.402344 45 40.902344 45 40.382813 C 45 39.820313 44.71875 39.289063 44.390625 38.992188 C 44.109375 38.734375 43.832031 38.613281 43.601563 38.53125 C 43.082031 38.277344 42.570313 38.058594 42.015625 37.246094 C 42.066406 37.3125 41.917969 36.789063 41.828125 36.199219 C 41.734375 35.597656 41.65625 34.882813 41.113281 34.214844 C 41.03125 34.109375 40.933594 34.015625 40.828125 33.9375 C 40.921875 33.023438 41 32.03125 41 31 C 41 27.839844 39.1875 24.714844 37.207031 21.871094 C 35.234375 19.03125 33.796875 17.519531 32.996094 14.207031 L 33 14.207031 C 32.578125 12.476563 32.519531 11.964844 32.460938 11.433594 C 32.402344 10.898438 32.339844 10.308594 31.972656 8.773438 C 31.628906 7.152344 31.25 5.46875 30.066406 4.132813 C 28.875 2.789063 26.933594 2 24 2 Z M 24 4 C 26.597656 4 27.816406 4.605469 28.570313 5.457031 C 29.324219 6.308594 29.683594 7.621094 30.019531 9.210938 L 30.027344 9.21875 L 30.027344 9.234375 C 30.382813 10.71875 30.414063 11.09375 30.472656 11.648438 C 30.53125 12.203125 30.621094 12.894531 31.050781 14.675781 C 31.949219 18.394531 33.664063 20.277344 35.566406 23.011719 C 37.464844 25.742188 39 28.648438 39 31 C 39 31.933594 38.929688 32.867188 38.84375 33.726563 C 38.78125 33.746094 38.71875 33.765625 38.664063 33.785156 C 38.359375 33.5625 38 33.40625 37.609375 33.296875 C 37.089844 33.109375 36.578125 32.96875 35.984375 32.953125 C 35.613281 32.914063 35.265625 32.925781 34.941406 32.96875 C 34.398438 23.066406 29.9375 20.148438 28.515625 17.210938 C 28.519531 17.203125 28.527344 17.199219 28.53125 17.1875 C 28.867188 16.671875 28.921875 16.136719 28.980469 15.527344 C 28.988281 15.464844 28.984375 15.402344 28.984375 15.34375 C 29.617188 14.464844 30 13.300781 30 12 C 30 9.195313 28.242188 7 26 7 C 24.726563 7 23.941406 7.445313 23.496094 8.488281 C 23.042969 7.457031 22.265625 7 21 7 C 20.496094 7 20.023438 7.125 19.582031 7.328125 C 19.699219 6.960938 19.828125 6.617188 19.984375 6.304688 C 20.722656 4.859375 21.761719 4 24 4 Z M 21 9 C 22.105469 9 23 10.34375 23 12 C 23 12.007813 23 12.011719 23 12.015625 C 22.917969 12.011719 22.839844 12 22.753906 12 C 22.46875 12 22.203125 12.042969 21.949219 12.109375 C 21.828125 11.472656 21.460938 11 21 11 C 20.449219 11 20 11.671875 20 12.5 C 20 12.703125 20.027344 12.894531 20.078125 13.070313 C 19.808594 13.273438 19.601563 13.445313 19.480469 13.566406 C 19.4375 13.605469 19.398438 13.636719 19.359375 13.671875 C 19.136719 13.191406 19 12.625 19 12 C 19 10.34375 19.894531 9 21 9 Z M 26 9 C 27.105469 9 28 10.34375 28 12 C 28 12.570313 27.882813 13.089844 27.699219 13.542969 C 27.40625 13.417969 27.125 13.324219 26.84375 13.253906 C 26.933594 13.03125 27 12.78125 27 12.5 C 27 11.671875 26.550781 11 26 11 C 25.449219 11 25 11.671875 25 12.5 C 25 12.503906 25 12.507813 25 12.511719 C 24.695313 12.386719 24.363281 12.269531 24.011719 12.175781 C 24.007813 12.117188 24 12.058594 24 12 C 24 10.34375 24.894531 9 26 9 Z M 22.753906 14 C 23.160156 14 23.75 14.160156 24.289063 14.378906 C 24.828125 14.597656 25.285156 14.839844 25.667969 15 L 25.746094 15.035156 L 25.828125 15.050781 C 26.335938 15.171875 26.792969 15.300781 26.980469 15.398438 C 26.929688 15.828125 26.878906 16.0625 26.855469 16.097656 C 26.828125 16.140625 26.6875 16.273438 26.175781 16.546875 C 25.542969 16.773438 25.0625 17.140625 24.546875 17.453125 C 23.980469 17.792969 23.40625 18 23.324219 18 C 22.886719 18 22.28125 17.96875 22.039063 17.917969 C 22.132813 17.945313 21.96875 17.863281 21.761719 17.671875 C 21.539063 17.460938 21.261719 17.171875 20.980469 16.871094 L 20.90625 16.796875 L 20.828125 16.742188 C 20.507813 16.515625 20.257813 16.3125 20.136719 16.167969 C 20.011719 16.019531 20 15.976563 20 15.878906 C 20 15.730469 19.972656 15.820313 20.0625 15.71875 C 20.152344 15.613281 20.425781 15.398438 20.796875 15.070313 L 20.832031 15.042969 L 20.863281 15.007813 C 20.808594 15.066406 21.171875 14.710938 21.566406 14.453125 C 21.960938 14.195313 22.449219 14 22.753906 14 Z M 18.925781 17.769531 C 18.953125 17.796875 18.980469 17.828125 19.011719 17.851563 C 19.003906 17.902344 19 17.949219 19 18 L 19 18.941406 C 18.992188 19.039063 18.75 19.730469 18.296875 20.542969 C 17.839844 21.359375 17.214844 22.359375 16.585938 23.46875 C 15.328125 25.679688 14 28.300781 14 31 C 14 31.597656 14.132813 32.160156 14.328125 32.6875 C 14.289063 32.652344 14.25 32.609375 14.207031 32.578125 C 13.890625 32.324219 13.53125 32.089844 13.039063 32.027344 C 13.226563 28.699219 14.332031 25.867188 15.515625 23.695313 C 16.164063 22.503906 16.828125 21.515625 17.371094 20.75 C 17.902344 19.992188 18.269531 19.585938 18.53125 19.003906 C 18.734375 18.601563 18.855469 18.183594 18.925781 17.769531 Z M 26.871094 18.421875 C 28.714844 22.050781 32.539063 24.113281 32.953125 33.328125 C 32.632813 33.371094 32.3125 33.457031 32.046875 33.652344 C 31.6875 33.914063 31.488281 34.246094 31.34375 34.542969 C 31.179688 34.871094 31.070313 35.25 31.03125 35.628906 C 30.996094 36.011719 31 36.410156 31 37 C 31 37.945313 30.992188 38.988281 30.890625 39.695313 L 30.890625 39.71875 C 30.886719 39.722656 30.886719 39.726563 30.886719 39.734375 C 30.671875 40.164063 29.136719 43 25 43 C 22.59375 43 21.113281 42.058594 20.246094 41.183594 C 20.136719 41.023438 20.027344 40.875 19.917969 40.722656 C 20.5 40.53125 21.148438 40.265625 21.632813 39.574219 L 21.65625 39.546875 L 21.671875 39.515625 C 21.980469 39.003906 22.042969 38.417969 21.96875 37.957031 C 21.890625 37.496094 21.703125 37.136719 21.527344 36.871094 C 21.359375 36.621094 21.242188 36.554688 21.117188 36.457031 C 20.992188 36.363281 20.863281 36.28125 20.71875 36.191406 C 20.433594 36.011719 20.097656 35.824219 19.75 35.625 C 19.058594 35.226563 18.289063 34.761719 18.015625 34.527344 C 17.683594 34.246094 17.132813 33.648438 16.707031 32.980469 C 16.285156 32.308594 16 31.5625 16 31 C 16 28.992188 17.113281 26.582031 18.324219 24.457031 C 18.929688 23.394531 19.546875 22.402344 20.042969 21.519531 C 20.433594 20.820313 20.765625 20.226563 20.914063 19.578125 C 21.046875 19.667969 21.199219 19.753906 21.402344 19.824219 L 21.4375 19.835938 L 21.476563 19.847656 C 22.171875 20.03125 22.871094 20 23.324219 20 C 24.265625 20 24.945313 19.546875 25.578125 19.167969 C 26.1875 18.800781 26.757813 18.46875 26.871094 18.421875 Z M 12.800781 34 C 12.640625 34 12.769531 33.988281 12.964844 34.144531 C 13.160156 34.300781 13.425781 34.570313 13.6875 34.882813 C 14.210938 35.511719 14.75 36.320313 15.078125 36.863281 L 15.09375 36.894531 L 15.113281 36.921875 C 15.898438 38.039063 16 38.359375 17.171875 40.230469 L 17.152344 40.1875 C 17.21875 40.308594 17.28125 40.40625 17.347656 40.515625 C 17.351563 40.523438 17.355469 40.53125 17.359375 40.542969 C 17.359375 40.542969 17.363281 40.542969 17.363281 40.546875 C 17.394531 40.617188 17.4375 40.683594 17.484375 40.746094 C 17.582031 40.929688 17.808594 41.34375 18.363281 41.992188 C 18.441406 42.097656 18.542969 42.230469 18.605469 42.324219 C 18.914063 42.800781 19.039063 43.058594 18.992188 43.792969 L 18.988281 43.824219 L 18.988281 43.855469 C 18.988281 45.179688 18.640625 45.527344 18.234375 45.757813 C 17.828125 45.988281 17.15625 46.027344 16.601563 45.976563 C 16.214844 45.941406 15.429688 45.667969 14.515625 45.308594 C 13.605469 44.945313 12.542969 44.519531 11.394531 44.265625 L 11.386719 44.265625 L 11.378906 44.261719 C 9.417969 43.859375 8.296875 43.59375 7.714844 43.390625 C 7.171875 43.195313 7.195313 43.167969 7.070313 42.984375 C 7.070313 42.972656 7.058594 42.960938 7.0625 42.925781 C 7.066406 42.847656 7.109375 42.640625 7.164063 42.367188 C 7.164063 42.367188 7.164063 42.363281 7.164063 42.363281 C 7.148438 42.4375 7.246094 42.234375 7.4375 41.921875 C 7.628906 41.613281 7.890625 41.132813 7.890625 40.503906 C 7.890625 39.414063 7.515625 38.5625 7.265625 37.984375 C 7.136719 37.699219 7.042969 37.476563 7.015625 37.367188 C 7.042969 37.308594 7.054688 37.277344 7.15625 37.234375 C 7.277344 37.183594 7.527344 37.132813 7.851563 37.105469 C 8.175781 37.074219 8.558594 37.058594 8.988281 36.964844 C 9.414063 36.867188 9.9375 36.65625 10.3125 36.179688 C 11.105469 35.542969 11.691406 34.828125 12 34.515625 C 12.234375 34.285156 12.390625 34.140625 12.488281 34.078125 C 12.589844 34.019531 12.621094 34 12.800781 34 Z M 35.171875 34.917969 C 35.335938 34.898438 35.539063 34.902344 35.796875 34.933594 L 35.855469 34.941406 L 35.917969 34.941406 C 35.832031 34.941406 36.679688 35.082031 36.960938 35.1875 L 37 35.199219 L 37.042969 35.210938 C 37.28125 35.277344 37.3125 35.324219 37.363281 35.359375 C 37.324219 35.441406 37.261719 35.527344 37.203125 35.613281 C 37.085938 35.726563 36.886719 35.882813 36.78125 36.246094 C 36.492188 36.570313 35.945313 36.910156 35.640625 36.910156 C 35.453125 36.910156 35.257813 36.875 35.152344 36.832031 C 35.121094 36.820313 35.128906 36.808594 35.109375 36.800781 L 35.109375 36.6875 C 35.109375 36.6875 35.121094 36.671875 35.152344 36.457031 C 35.175781 36.3125 35.113281 36.042969 35.0625 35.800781 C 35.042969 35.503906 34.871094 35.285156 34.757813 35.019531 C 34.777344 35.011719 34.8125 35.007813 34.835938 35 L 35 35 C 35 34.984375 35 34.972656 35 34.957031 C 35.058594 34.945313 35.101563 34.921875 35.171875 34.917969 Z M 37.417969 35.011719 C 37.417969 35.136719 37.464844 35.074219 37.484375 35.171875 C 37.476563 35.179688 37.46875 35.195313 37.460938 35.207031 Z M 39.621094 35.628906 C 39.675781 35.765625 39.78125 36.054688 39.851563 36.5 C 39.933594 37.046875 39.890625 37.605469 40.308594 38.296875 L 40.316406 38.316406 L 40.332031 38.335938 C 41.183594 39.613281 42.3125 40.125 42.726563 40.332031 L 42.789063 40.363281 L 42.859375 40.386719 C 42.949219 40.414063 42.988281 40.441406 43.011719 40.453125 C 43.011719 40.449219 43.011719 40.46875 43.011719 40.46875 C 43.023438 40.449219 42.9375 40.503906 42.699219 40.742188 C 42.761719 40.679688 42.574219 40.832031 42.339844 40.984375 C 42.097656 41.132813 41.78125 41.320313 41.425781 41.527344 C 40.722656 41.9375 39.890625 42.414063 39.207031 42.847656 L 39.1875 42.859375 L 39.164063 42.875 C 37.53125 44.042969 37.003906 44.308594 36.320313 44.992188 C 35.59375 45.71875 35.128906 46 34.074219 46 C 32.894531 46 32.652344 45.820313 32.53125 45.703125 L 32.484375 45.652344 L 32.425781 45.609375 C 32.359375 45.558594 32 45.046875 32 43.925781 C 32 43.113281 32.613281 42.132813 32.871094 39.96875 C 33.003906 39.023438 33 37.941406 33 37 C 33 36.410156 33.003906 36.039063 33.023438 35.828125 C 33.027344 35.777344 33.035156 35.757813 33.039063 35.722656 C 33.070313 35.765625 33.109375 35.800781 33.109375 35.925781 L 33.109375 36.140625 L 33.160156 36.253906 C 33.144531 36.324219 33.109375 36.441406 33.109375 36.6875 L 33.109375 37.363281 L 33.203125 37.5625 C 33.457031 38.125 33.941406 38.496094 34.390625 38.683594 C 34.839844 38.867188 35.269531 38.910156 35.640625 38.910156 C 36.960938 38.910156 37.957031 38.117188 38.546875 37.25 L 38.722656 36.996094 L 38.722656 36.9375 C 38.734375 36.917969 38.71875 36.925781 38.738281 36.902344 L 38.804688 36.832031 L 38.855469 36.75 C 39.160156 36.25 39.378906 35.894531 39.296875 35.984375 Z M 17.136719 36.375 C 17.636719 36.730469 18.21875 37.050781 18.757813 37.359375 C 19.105469 37.558594 19.429688 37.746094 19.660156 37.890625 C 19.761719 37.953125 19.835938 38.003906 19.886719 38.039063 C 19.933594 38.125 19.984375 38.21875 19.996094 38.285156 C 20.003906 38.351563 19.992188 38.386719 19.964844 38.441406 C 19.9375 38.460938 19.496094 38.761719 19.027344 38.914063 C 18.925781 38.945313 18.851563 38.960938 18.757813 38.984375 C 17.964844 37.714844 17.605469 37.089844 17.136719 36.375 Z"/></svg>
